assets/Scorpion/Flat/scorpion_flat.svg

<svg width="32" height="32" viewBox="0 0 32 32" fill="none" xmlns="http://www.w3.org/2000/svg">
<path d="M13.5 2C12.85 2 12.3 2.41 12.09 2.99C12.03 3.16 11.82 3.23 11.66 3.15C11.43 3.04 11.17 2.99 10.9 3C10.19 3.05 9.6 3.6 9.51 4.31C9.49 4.44 9.49 4.56 9.51 4.68C9.53 4.84 9.42 5 9.26 5.02C8.54 5.14 8 5.75 8 6.5C8 6.82 8.1 7.11 8.27 7.35C8.29 7.38 8.31 7.41 8.33 7.43L9.16 8.54C9.33 8.76 9.66 8.76 9.83 8.54L10.69 7.39C10.69 7.385 10.6925 7.3825 10.695 7.38C10.6975 7.3775 10.7 7.375 10.7 7.37L10.71 7.36C10.91 7.1 11.02 6.76 11 6.39C10.99 6.19 11.11 6.01 11.31 5.96C11.64 5.88 12.12 5.66 12.41 5.01C12.49 4.84 12.68 4.77 12.85 4.85C13.04 4.95 13.27 5 13.5 5C13.76 5 14 4.93 14.21 4.82C14.35 4.75 14.52 4.81 14.57 4.96C14.77 5.56 15.33 6 16 6C16.88 6 17.59 5.23 17.49 4.33C17.41 3.65 16.87 3.1 16.19 3.01C15.86 2.97 15.55 3.04 15.29 3.18C15.15 3.25 14.98 3.19 14.93 3.04C14.73 2.44 14.17 2 13.5 2Z" fill="#402A32"/>
<path d="M25.46 13.12C25.33 13.12 25.2 13.07 25.11 12.97L23.46 11.32C23.09 10.95 22.5 10.89 22.06 11.18L20.16 12.45C19.93 12.6 19.62 12.54 19.47 12.31C19.32 12.08 19.38 11.77 19.61 11.62L21.51 10.35C22.34 9.78998 23.47 9.89998 24.17 10.61L25.82 12.26C26.02 12.46 26.02 12.77 25.82 12.97C25.71 13.07 25.58 13.12 25.46 13.12Z" fill="#402A32"/>
<path d="M25.11 15.94C25.2 16.04 25.33 16.09 25.46 16.09C25.58 16.09 25.71 16.04 25.82 15.94C26.02 15.74 26.02 15.43 25.82 15.23L24.17 13.58C23.47 12.87 22.34 12.76 21.51 13.32L19.61 14.59C19.38 14.74 19.32 15.05 19.47 15.28C19.62 15.51 19.93 15.57 20.16 15.42L22.06 14.15C22.5 13.86 23.09 13.92 23.46 14.29L25.11 15.94Z" fill="#402A32"/>
<path d="M25.46 19C25.33 19 25.2 18.95 25.11 18.85L23.46 17.2C23.09 16.83 22.5 16.77 22.06 17.06L20.16 18.33C19.93 18.48 19.62 18.42 19.47 18.19C19.32 17.96 19.38 17.65 19.61 17.5L21.51 16.23C22.34 15.67 23.47 15.78 24.17 16.49L25.82 18.14C26.02 18.34 26.02 18.65 25.82 18.85C25.71 18.95 25.58 19 25.46 19Z" fill="#402A32"/>
<path d="M6.84999 12.9699C6.75999 13.0699 6.62999 13.1199 6.49999 13.1199C6.36999 13.1199 6.23999 13.0699 6.13999 12.9799C5.93999 12.7799 5.93999 12.4699 6.13999 12.2699L7.78999 10.6199C8.49999 9.90993 9.62999 9.79993 10.45 10.3499L12.35 11.6199C12.58 11.7699 12.64 12.0799 12.49 12.3099C12.34 12.5399 12.03 12.5999 11.8 12.4499L9.89999 11.1799C9.45999 10.8899 8.86999 10.9499 8.49999 11.3199L6.84999 12.9699Z" fill="#402A32"/>
<path d="M6.49999 16.09C6.62999 16.09 6.75999 16.04 6.84999 15.94L8.49999 14.3C8.86999 13.93 9.45999 13.87 9.89999 14.16L11.8 15.43C12.03 15.58 12.34 15.52 12.49 15.29C12.64 15.06 12.58 14.75 12.35 14.6L10.45 13.33C9.61999 12.77 8.48999 12.88 7.78999 13.59L6.13999 15.24C5.93999 15.44 5.93999 15.75 6.13999 15.95C6.23999 16.04 6.36999 16.09 6.49999 16.09Z" fill="#402A32"/>
<path d="M6.84999 18.85C6.75999 18.95 6.62999 19 6.49999 19C6.36999 19 6.23999 18.95 6.13999 18.85C5.93999 18.65 5.93999 18.34 6.13999 18.14L7.78999 16.49C8.48999 15.78 9.61999 15.67 10.45 16.23L12.35 17.5C12.58 17.65 12.64 17.96 12.49 18.19C12.34 18.42 12.03 18.48 11.8 18.33L9.89999 17.06C9.45999 16.77 8.86999 16.83 8.49999 17.2L6.84999 18.85Z" fill="#402A32"/>
<path d="M27.49 22H17.84V20H26.54L27.49 22Z" fill="#402A32"/>
<path d="M19.25 28.01H23.48L23.98 30H20.97C19.97 30 19.14 29.26 19 28.3C18.98 28.15 19.1 28.01 19.25 28.01Z" fill="#402A32"/>
<path d="M4.5 22H14.15V20H5.45L4.5 22Z" fill="#402A32"/>
<path d="M12.74 28.01H8.51L8 30H11.01C12.01 30 12.84 29.26 12.99 28.3C13.01 28.15 12.89 28.01 12.74 28.01Z" fill="#402A32"/>
<path d="M11.9 9.21004L10.08 19.61L21.92 19.62L20.1 9.21004C19.7 6.93004 17.99 5.29004 16 5.29004C14.02 5.29004 12.3 6.93004 11.9 9.21004Z" fill="#6D4534"/>
<path d="M15.41 22.13V25.41C15.41 25.87 14.92 26.17 14.51 25.97C13.84 25.63 13.41 24.94 13.41 24.19V21.98L15.41 22.13Z" fill="#6D4534"/>
<path d="M16.41 22.13V25.41C16.41 25.87 16.9 26.17 17.31 25.97C17.98 25.63 18.41 24.94 18.41 24.19V21.98L16.41 22.13Z" fill="#6D4534"/>
<path d="M26.54 19.9999C25.14 19.9699 23.99 21.1499 23.99 22.5499V23.54C23.99 23.8099 23.81 24.0499 23.55 24.1399L20.35 25.1499C19.63 25.3799 19.12 25.9899 19.01 26.7099C18.99 26.8599 19.11 27 19.26 27H22.82C23.02 27 23.19 27.17 23.19 27.3699V30H25.57C26.48 30 27.34 29.6399 27.98 29C28.62 28.3599 28.98 27.49 28.98 26.59V22.5C28.99 21.1399 27.9 20.0299 26.54 19.9999Z" fill="#6D4534"/>
<path d="M8 22.5499C8 21.1499 6.85 19.9699 5.45 19.9999C4.09 20.0299 3 21.1399 3 22.5V26.59C3 27.49 3.36 28.3599 4 29C4.64 29.6399 5.51 30 6.41 30H8.8V27.3699C8.8 27.17 8.97 27 9.17 27H12.73C12.89 27 13 26.8599 12.98 26.7099C12.87 25.9899 12.36 25.3799 11.64 25.1499L8.44 24.1399C8.18 24.0499 8 23.8099 8 23.54V22.5499Z" fill="#6D4534"/>
<path d="M17.98 24.29H14.02C11.81 24.29 10.02 22.5 10.02 20.29C10.02 18.08 11.81 16.29 14.02 16.29H17.98C20.19 16.29 21.98 18.08 21.98 20.29C21.98 22.5 20.19 24.29 17.98 24.29Z" fill="#A56953"/>
<path d="M14.51 20.29C14.51 20.8423 14.0623 21.29 13.51 21.29C12.9577 21.29 12.51 20.8423 12.51 20.29C12.51 19.7378 12.9577 19.29 13.51 19.29C14.0623 19.29 14.51 19.7378 14.51 20.29Z" fill="#212121"/>
<path d="M19.49 20.29C19.49 20.8423 19.0423 21.29 18.49 21.29C17.9377 21.29 17.49 20.8423 17.49 20.29C17.49 19.7378 17.9377 19.29 18.49 19.29C19.0423 19.29 19.49 19.7378 19.49 20.29Z" fill="#212121"/>
</svg>

<svg xmlns="http://www.w3.org/2000/svg" width="32" height="32" fill="none"><path fill="#402A32" d="M13.5 2c-.65 0-1.2.41-1.41.99-.06.17-.27.24-.43.16-.23-.11-.49-.16-.76-.15-.71.05-1.3.6-1.39 1.31-.02.13-.02.25 0 .37.02.16-.09.32-.25.34a1.496 1.496 0 0 0-.99 2.33c.02.03.04.06.06.08l.83 1.11c.17.22.5.22.67 0l.86-1.15c0-.005.003-.007.005-.01.002-.002.005-.005.005-.01l.01-.01c.2-.26.31-.6.29-.97-.01-.2.11-.38.31-.43.33-.08.81-.3 1.1-.95.08-.17.27-.24.44-.16.19.1.42.15.65.15.26 0 .5-.07.71-.18.14-.07.31-.01.36.14.2.6.76 1.04 1.43 1.04.88 0 1.59-.77 1.49-1.67-.08-.68-.62-1.23-1.3-1.32-.33-.04-.64.03-.9.17-.14.07-.31.01-.36-.14-.2-.6-.76-1.04-1.43-1.04ZM25.46 13.12a.47.47 0 0 1-.35-.15l-1.65-1.65c-.37-.37-.96-.43-1.4-.14l-1.9 1.27a.498.498 0 0 1-.55-.83l1.9-1.27c.83-.56 1.96-.45 2.66.26l1.65 1.65c.2.2.2.51 0 .71-.11.1-.24.15-.36.15Z"/><path fill="#402A32" d="M25.11 15.94c.09.1.22.15.35.15.12 0 .25-.05.36-.15.2-.2.2-.51 0-.71l-1.65-1.65c-.7-.71-1.83-.82-2.66-.26l-1.9 1.27a.498.498 0 0 0 .55.83l1.9-1.27c.44-.29 1.03-.23 1.4.14l1.65 1.65Z"/><path fill="#402A32" d="M25.46 19a.47.47 0 0 1-.35-.15l-1.65-1.65c-.37-.37-.96-.43-1.4-.14l-1.9 1.27a.498.498 0 0 1-.55-.83l1.9-1.27c.83-.56 1.96-.45 2.66.26l1.65 1.65c.2.2.2.51 0 .71-.11.1-.24.15-.36.15ZM6.85 12.97a.47.47 0 0 1-.35.15c-.13 0-.26-.05-.36-.14-.2-.2-.2-.51 0-.71l1.65-1.65c.71-.71 1.84-.82 2.66-.27l1.9 1.27a.498.498 0 0 1-.55.83l-1.9-1.27c-.44-.29-1.03-.23-1.4.14l-1.65 1.65Z"/><path fill="#402A32" d="M6.5 16.09c.13 0 .26-.05.35-.15L8.5 14.3c.37-.37.96-.43 1.4-.14l1.9 1.27a.498.498 0 0 0 .55-.83l-1.9-1.27c-.83-.56-1.96-.45-2.66.26l-1.65 1.65c-.2.2-.2.51 0 .71.1.09.23.14.36.14Z"/><path fill="#402A32" d="M6.85 18.85a.47.47 0 0 1-.35.15c-.13 0-.26-.05-.36-.15-.2-.2-.2-.51 0-.71l1.65-1.65c.7-.71 1.83-.82 2.66-.26l1.9 1.27a.498.498 0 0 1-.55.83l-1.9-1.27c-.44-.29-1.03-.23-1.4.14l-1.65 1.65ZM27.49 22h-9.65v-2h8.7l.95 2ZM19.25 28.01h4.23l.5 1.99h-3.01c-1 0-1.83-.74-1.97-1.7-.02-.15.1-.29.25-.29ZM4.5 22h9.65v-2h-8.7l-.95 2ZM12.74 28.01H8.51L8 30h3.01c1 0 1.83-.74 1.98-1.7.02-.15-.1-.29-.25-.29Z"/><path fill="#6D4534" d="m11.9 9.21-1.82 10.4 11.84.01L20.1 9.21c-.4-2.28-2.11-3.92-4.1-3.92-1.98 0-3.7 1.64-4.1 3.92ZM15.41 22.13v3.28c0 .46-.49.76-.9.56-.67-.34-1.1-1.03-1.1-1.78v-2.21l2 .15ZM16.41 22.13v3.28c0 .46.49.76.9.56.67-.34 1.1-1.03 1.1-1.78v-2.21l-2 .15ZM26.54 20c-1.4-.03-2.55 1.15-2.55 2.55v.99c0 .27-.18.51-.44.6l-3.2 1.01c-.72.23-1.23.84-1.34 1.56-.02.15.1.29.25.29h3.56c.2 0 .37.17.37.37V30h2.38a3.415 3.415 0 0 0 3.41-3.41V22.5a2.488 2.488 0 0 0-2.44-2.5ZM8 22.55c0-1.4-1.15-2.58-2.55-2.55A2.504 2.504 0 0 0 3 22.5v4.09A3.415 3.415 0 0 0 6.41 30H8.8v-2.63c0-.2.17-.37.37-.37h3.56c.16 0 .27-.14.25-.29a1.95 1.95 0 0 0-1.34-1.56l-3.2-1.01a.643.643 0 0 1-.44-.6v-.99Z"/><path fill="#A56953" d="M17.98 24.29h-3.96c-2.21 0-4-1.79-4-4s1.79-4 4-4h3.96c2.21 0 4 1.79 4 4s-1.79 4-4 4Z"/><path fill="#212121" d="M14.51 20.29a1 1 0 1 1-2 0 1 1 0 0 1 2 0ZM19.49 20.29a1 1 0 1 1-2 0 1 1 0 0 1 2 0Z"/></svg>
